X:47
T:The Silver Spear
R:reel
O:Ireland
M:C
L:1/8
K:D
"D" FA ~A2 "A" BAFA | "G" dfed "(A)" BcdA | "D" FA ~A2 "A" BAFA | "G" dfed "(A)" B2 A2 |
"D" FA ~A2 "A" BAFA | "G" dfed "(A)" Bdef | "G" ~g3 e "D" ~f3 e | "G" dfed "A"   B2 A2 :|
"D" faaf  "A"  bfaf | "G" gfed "(A)" Bcde | "D" faaf  "A"  bfaf | "G" gfed "(A)" B2 A2 |
"D" faaf  "A"  bfaf | "G" gfed "(A)" Bdef | "G" ~g3 e "D" ~f3 e | "G" dfed "A"   B2 A2 :|
